X:200
T:Hessian Camp
M:2/4
L:1/8
B:Thompson's Compleat Collection of 200 Favourite Country Dances, vol. 3 (London, 1773)
Z:Transcribed and edited by Flynn Titford-Mock, 2007
Z:abc's:AK/Fiddler's Companion
K:D
d2e2 | f d2 e | f2 g2 | a f2 a | a f2 a | g e2 g | fd gf | {f}e4 :|
|: fd fa | ec eg | fd gf | {f}e4 | d/e/f/g/ aa | d/e/f/g/ aa | bgfe | d4 :|

